X:506
T:B506-  When First the Scottish Wars Began
S:1657?
Q:1/4=120
L:1/4
M:6/4
K:D
A|A2Ad2d|ef2e2d|ef2e2d|df2B2A|\
Bddd2:|f/g/|a2ba3/2g/f|e2de2f/g/|\
a2ba3/2g/f|e2de2d/e/|f3B2A|\
Bddd2e|f3B2A|Bddd2|]

